!!!!SEGMENT: pl-sa--481-a-viii-121--012_anonim--la-belle.krn
!!!cenid: 18xx:383
!!!COM: Anonim
!!!COM-rismID: pe30004985
!!!CDT:
!!!CNT:
!!!OTL: La belle
!!!PDT:
!!!AGN: Secular
!!!SMS-siglum: PL-SA
!!!SMS-shelfmark: 481/A VIII 121
!!!SMS-shelfwork: 012 W
!!!SMS-variant:
!!!SMS-altvar:
!!!NIFC-rismSourceID: 1001070481
!!!NIFC-rismChildID: 1001070481
!!!NIFC-islandoraID:
!!!URL-pdf-islandora:
!!!URL-scan: https://bc.bdsandomierz.pl/dlibra/publication/1212/edition/1171/content @EN{Scan in the Sandomierz Diocese Digital Library} @PL{Skany w portalu Cyfrowa Biblioteka Diecezjalna w Sandomierzu}
!!!ONB-nifc: Str. 8, s. 3-5
!!!AIN: 1 piano
!!!key:
**kern	**kern
*part1	*part1
*staff2	*staff1
*Ipiano	*Iempty
*I"Piano	*
*I'P-no	*
*clefF4	*clefG2
*k[f#c#]	*k[f#c#]
*D:	*D:
*M2/4	*M2/4
*>[A,B,A]	*>[A,B,A]
*>A	*>A
!LO:TX:a:t=P:problem= omyłkowo wpisany klucz F3 i krzyżyk E# zamiast C#	!LO:TX:a:i:t=La belle rue
4r	8a\L
.	8a\J
=1	=1
*tremolo	*
!LO:TX:a:P:global:problem= złe wyświetlanie wartości rytmicznej tremolo	!
!LO:N:TREM:vis=2.	!
8F# 8D\L	16dd\LL
.	16cc#\
8A\	16dd\
.	16ee\JJ
8F# 8D\	8ff#\L
8A\J	8ff#\J
=2:|!	=2:|!
8EL 8C#\	8gg\L
8A\	8ee\
8G 8E\	8ee\
8A\J	8cc#\J
=3	=3
!LO:N:TREM:vis=2.	!
8F# 8D\L	8dd\L
8A\	16ff#\L
.	16dd\JJ
8F# 8D\	8a\L
8A\J	8a\J
=4	=4!|:
!LO:N:TREM:vis=2.	!
8F# 8D\L	16dd\LL
.	16cc#\
8A\	16dd\
.	16ee\JJ
8F# 8D\	8ff#\L
8A\J	8ff#\J
=5:|!	=5:|!
!LO:N:TREM:vis=2.	!
8E 8C#\L	8gg\L
8G\	8ee\
8E 8C#\	8ee\
8G\J	8cc#\J
!LO:LB:g=original	!LO:LB:g=original
=6	=6
4F# 4D\	4dd\
=||;	=||;
*>B	*>B
4r	8aa\L
.	8aa\J
=7	=7
16D\LL	16aa\LL
16A\	16gg#X\
16F#\	16aa\
16A\JJ	16bb\JJ
*rep	*
16D\LL	8aa\L
16A\	.
16F#\	8aa\J
16A\JJ	.
*Xrep	*
=8	=8
*rep	*
16D\LL	8ff#\L
16A\	.
16F#\	8dd\
16A\JJ	.
*Xrep	*
*rep	*
16D\LL	8ff#\
16A\	.
16F#\	8aa\J
16A\JJ	.
*Xrep	*
=9	=9
16C#\LL	16gg\LL
16A\	16ff#\
16E\	16gg\
16A\JJ	16aa\JJ
*rep	*
16C#\LL	8gg\L
16A\	.
16E\	8gg\J
16A\JJ	.
*Xrep	*
=10	=10
*rep	*
16C#\LL	8ee\L
16A\	.
16E\	8cc#\
16A\JJ	.
*Xrep	*
*rep	*
16C#\LL	8aa\
16A\	.
16E\	8aa\J
16A\JJ	.
*Xrep	*
=11	=11
16D\LL	16aa\LL
16A\	16gg\
16F#\	16aa\
16A\JJ	16bb\JJ
*rep	*
16D\LL	8aa\L
16A\	.
16F#\	8aa\J
16A\JJ	.
*Xrep	*
=12	=12
*rep	*
16D\LL	8ff#\L
16A\	.
16F#\	8dd\
16A\JJ	.
*Xrep	*
*rep	*
16D\LL	8ff#\
16A\	.
16F#\	8aa\J
16A\JJ	.
*Xrep	*
=13	=13
4E\	8gg#X\L
.	8aa\J
4d 4B 4E\	8ee\L
.	16ff#\L
.	16gg#\JJ
=14	=14
8c#L 8A\	4aa\
8e\J	.
4c# 4A\	8aa\L
.	8bb\J
=15	=15
4d 4A\	8gg#X\L
.	8aa\
4e 4c# 4A\	8ggn\
.	8aa\J
=16	=16
4f# 4d\	8ff#\L
.	8aa\J
4A 4F# 4D\	16bb\LL
.	16aa\
.	16gg\
.	16ff#\JJ
=17	=17
4G 4C# 4AA\	8ff#\L
.	8aa\J
4A 4F# 4D\	16bb\LL
.	16aa\
.	16gg\
.	16ff#\JJ
!LO:LB:g=original	!LO:LB:g=original
=18	=18
!	!LO:TX:b:i:t=Da. C&colon;
4G\	4ee\
==	==
*-	*-
!!!system-decoration: s1,s2
!!!ENC: Marta Lawrence
!!!END: 2020-11-20
!!!ENC: Marcin Jachim
!!!END: 2020-06-14
!!!YEC: Copyright 2022 Narodowy Instytut Fryderyka Chopina (https://polishscores.org)
!!!YEM: License CC-BY-4.0 (https://creativecommons.org/licenses/by/4.0)
